X:200
T: Richmond
C: Larry Unger
N: As played by Judi Stellar
M:C|
L:1/8
K:Em
"Em" e2 e2 B2 B2 | eB f2 "D" d4 | dA B2 d2 e2 | "Dm" e=f f2 "Bm"ed B2|
"Em" e2 e2 B2 B2 | eB f2 "D" d4 | d2 e2 dA B2 | "Bm" A2 F2 "Em" E4:|
|: "Em" E3 E- EE E2 | "Bm" B,D-DE FE D2 | "Em" E3 E- EE B,^C | "D"D2 ^C2 B,4|
"Em" E3 E- EE E2 | "Bm" B,D-DE FE D2 | "D" FG G2 FE D2 | "Bm"B,DEF "Em"E4 :|
